Newaita-dark/.DP/32/network-wireless-signal-good.svg

<?xml version="1.0" encoding="UTF-8"?>
<svg xmlns="http://www.w3.org/2000/svg" xmlns:xlink="http://www.w3.org/1999/xlink" width="32pt" height="32pt" viewBox="0 0 32 32" version="1.1">
<g id="surface1">
<path style=" stroke:none;fill-rule:nonzero;fill:rgb(74.117649%,74.117649%,74.117649%);fill-opacity:1;" d="M 15.875 20.261719 C 13.9375 20.261719 12.195312 21.089844 10.988281 22.410156 L 14.511719 27.539062 C 15.214844 28.199219 16.539062 28.199219 17.242188 27.539062 L 20.765625 22.410156 C 19.558594 21.089844 17.816406 20.261719 15.875 20.261719 Z M 15.875 20.261719 "/>
<path style=" stroke:none;fill-rule:nonzero;fill:rgb(74.117649%,74.117649%,74.117649%);fill-opacity:0.392157;" d="M 15.875 4.382812 C 10.59375 4.382812 5.746094 6.1875 1.914062 9.214844 L 4.171875 12.5 C 7.359375 9.90625 11.429688 8.355469 15.875 8.355469 C 20.324219 8.355469 24.394531 9.90625 27.582031 12.5 L 29.835938 9.214844 C 26.007812 6.1875 21.160156 4.382812 15.875 4.382812 Z M 15.875 4.382812 "/>
<path style=" stroke:none;fill-rule:nonzero;fill:rgb(74.117649%,74.117649%,74.117649%);fill-opacity:1;" d="M 15.875 12.324219 C 12.265625 12.324219 8.972656 13.625 6.433594 15.785156 L 8.699219 19.082031 C 10.582031 17.347656 13.101562 16.292969 15.875 16.292969 C 18.652344 16.292969 21.167969 17.347656 23.054688 19.082031 L 25.320312 15.785156 C 22.78125 13.625 19.488281 12.324219 15.875 12.324219 Z M 15.875 12.324219 "/>
</g>
</svg>

<svg xmlns="http://www.w3.org/2000/svg" width="32pt" height="32pt" viewBox="0 0 32 32"><g fill="#bdbdbd"><path d="M15.875 20.262a6.6 6.6 0 0 0-4.887 2.148l3.524 5.13c.703.66 2.027.66 2.73 0l3.524-5.13a6.603 6.603 0 0 0-4.891-2.148zm0 0"/><path d="M15.875 4.383a22.433 22.433 0 0 0-13.96 4.832L4.171 12.5a18.466 18.466 0 0 1 11.703-4.145c4.45 0 8.52 1.551 11.707 4.145l2.254-3.285a22.417 22.417 0 0 0-13.961-4.832zm0 0" fill-opacity=".392"/><path d="M15.875 12.324c-3.61 0-6.902 1.301-9.441 3.461l2.265 3.297a10.548 10.548 0 0 1 7.176-2.789c2.777 0 5.293 1.055 7.18 2.789l2.265-3.297a14.511 14.511 0 0 0-9.445-3.46zm0 0"/></g></svg>
